X:1
T:Lord Rendal
M:3/4
L:1/4
K:G
 G| B B B| d3| A B A| G2 d| e e f| g2 e| e d d| d2 d| e e f| g/2 g3/2 e|\
 d e d| B2 A| G d d| d2 G| A G G| G2||
